X: 31862
T: Pauline's Place
R: reel
M: 4/4
K: Gmajor
|:BD~D2 DGBG|AcBG AGEG|cE~E2 Eage|dBGB ABGA|
BD~D2 DGBG|AcBG AGEG|cage dBGB|1 AGFA GBdc:|2 AGFA GBcA||
|:Bd~d2 dBGB|DGBd gdBd|ce~e2 efaf|g2fg ed^cd|
BGB=c dBGB|DGBd gdBd|cage dBGB|1 AGFA GBcA:|2 AGFA GBdc||

